svg/file-icons/Gnuplot.svg

<svg version="1.1" xmlns="http://www.w3.org/2000/svg" width="512px" height="512px"><path d="M512,0H0v512h512V0z M13.1692028,253.4850922l86.1395721,0.1325378v61.7797089l-19.7243805,23.1059265l-66.4151917-77.7981873V253.4850922z M498.8330688,386.7918701h-25.3086853v-133.306778h25.3086853V386.7918701z M351.8580627,318.8506165v-40.1833191l39.0504456,45.7456665c2.5184937,2.9015503,7.2114868,3.2015686,10.0166626,0l60.549408-70.9278717h2.8342896v133.306778h-39.3357239l-60.5478821-70.9290161C361.7374268,312.8186951,356.260498,311.6230469,351.8580627,318.8506165z M169.4738464,253.4850922h51.5012512v54.5464325l-30.0639496,32.6090088l-47.9191284-56.1334839L169.4738464,253.4850922z M134.335083,274.3662109l-17.8254623-20.8811188h35.6506577L134.335083,274.3662109z M351.8580627,253.4850922h92.301239l-48.2424622,56.5117035l-44.0587769-51.6131592V253.4850922z M305.9095459,215.9067993l-26.1470032,28.3605194h-49.5696716V193.15448l26.8826904,31.4902954c2.8890381,3.2736053,7.956665,2.9481659,10.3221741-0.3869934l75.244812-102.8341827v122.8437195h-2.8347168l-24.0491028-28.1726685C313.0966187,213.1300354,308.6685181,212.9425964,305.9095459,215.9067993z M322.4927063,244.2673187h-24.8197021l12.8872986-13.9782715L322.4927063,244.2673187z M271.2641602,253.4850922l-41.0712891,44.5483246v-44.5483246H271.2641602z M220.9750977,244.2673187h-43.6324615l43.6324615-51.1126862V244.2673187z M220.9750977,327.458313v48.3997498L199.52211,350.727478L220.9750977,327.458313z M212.9942932,386.7918701h-46.7217865l24.2592773-26.3130798L212.9942932,386.7918701z M230.1928711,386.6559448v-69.1957397l58.9819031-63.9751129h41.1867371l12.2810364,14.3867645v61.7739258l-48.7836304,57.1460876L230.1928711,386.6559448z M285.9919739,396.0073547l-23.9080811,28.0063477l-23.9080811-28.0063477H285.9919739z M342.6425476,349.9288635v36.8630066h-31.4686584L342.6425476,349.9288635z M351.8580627,339.1336975l7.5588684-8.8546753l48.2414856,56.5128479h-55.800354V339.1336975z M452.0283813,244.2673187H351.8580627V110.9616776h112.4508057v118.9201431L452.0283813,244.2673187z M340.7247009,101.7439194H230.1928711V13.1692028h112.4496765v85.9537125L340.7247009,101.7439194z M220.9750977,101.7439194h-112.448555V13.1692028h112.448555V101.7439194z M108.5270767,244.2672424l-0.0005341-133.3055725h112.448555v62.0023575l-60.9460297,71.3032837L108.5270767,244.2672424z M108.5265427,264.4156189l17.151474,20.0917358l-17.151474,20.09198V264.4156189z M134.3349457,294.6481934l47.5860291,55.7436218l-33.5590973,36.4000549h-39.8353348v-61.9107056L134.3349457,294.6481934z M139.8656311,396.0073547l-31.3390884,33.992218v-33.992218H139.8656311z M157.7762604,396.0073547l63.1988373,0.1335449v102.6921692h-112.448555v-49.4065857L157.7762604,396.0073547z M267.0921936,438.4299011l36.2147522-42.4225464h39.3356018v102.8257141H230.1928711v-91.8943176l26.8826904,31.4911499C259.7185669,441.3357544,264.0956116,441.66922,267.0921936,438.4299011z M351.8580627,396.0073547h63.6670227l48.783783,57.1482239v45.6774902H351.8580627V396.0073547z M432.8398132,396.0073547h31.4690552v36.864563L432.8398132,396.0073547z M473.5243835,396.0073547h25.3086853v77.3079834l-25.3086853-29.6478271V396.0073547z M498.8330688,244.2673187h-25.3086853v-4.8974304l25.3086853-29.6466827V244.2673187z M473.5243835,219.0866547V110.9616776h25.3086853v78.4782944L473.5243835,219.0866547z M498.8330688,101.7439194h-25.3086853V13.1692028h25.3086853V101.7439194z M464.3088684,13.1692028v88.5747147H357.0424805l64.8110657-88.5747147H464.3088684z M351.8580627,86.5284119V13.1692028h53.6776733L351.8580627,86.5284119z M99.3087769,13.1692028v88.5747147H13.1692028V13.1692028H99.3087769z M13.1692028,110.9616776h86.1395721v122.3739853L13.1692028,132.4299469V110.9616776z M91.326828,244.2673187H13.1692028v-91.5558319L91.326828,244.2673187z M84.5915909,352.9194641l14.717186-17.2402954v51.1127014H13.1692028V280.9861755l61.4079971,71.9332886C77.4512863,356.2975159,82.2568054,355.6880188,84.5915909,352.9194641z M13.1692028,498.8330688V396.0073547h86.1395721v43.9901733l-54.2434654,58.8355408H13.1692028z M99.3087769,459.4245911v39.4084778H62.9760704L99.3087769,459.4245911z M498.8330688,498.8330688h-25.3086853v-34.881897l25.3086853,29.6481018V498.8330688z M261.6855774,209.7635193l-31.4927063-36.8906555v-61.9111862h103.7871094L261.6855774,209.7635193z"/></svg>

<svg xmlns="http://www.w3.org/2000/svg" width="512" height="512"><path d="M512 0H0v512h512V0zM13.17 253.485l86.139.133v61.78l-19.725 23.105-66.415-77.798v-7.22zm485.663 133.307h-25.309V253.485h25.31v133.307zM351.858 318.85v-40.184l39.05 45.746c2.519 2.902 7.212 3.202 10.017 0l60.55-70.928h2.834v133.307h-39.336l-60.548-70.93c-2.688-3.043-8.165-4.239-12.567 2.989zm-182.384-65.366h51.501v54.547l-30.064 32.609-47.919-56.134 26.482-31.022zm-35.139 20.881-17.825-20.88h35.65l-17.825 20.88zm217.523-20.88h92.301l-48.242 56.51-44.059-51.612v-4.899zm-45.948-37.58-26.147 28.361h-49.57v-51.113l26.883 31.49c2.889 3.274 7.956 2.949 10.322-.386l75.245-102.834v122.843h-2.835l-24.05-28.172c-2.661-2.965-7.09-3.152-9.848-.188zm16.583 28.361h-24.82l12.887-13.978 11.933 13.978zm-51.229 9.218-41.071 44.548v-44.548h41.071zm-50.289-9.218h-43.632l43.632-51.112v51.112zm0 83.191v48.4l-21.453-25.13 21.453-23.27zm-7.98 59.334h-46.722l24.259-26.313 22.462 26.313zm17.198-.136V317.46l58.982-63.975h41.187l12.28 14.387v61.774l-48.783 57.146-63.666-.136zm55.799 9.351-23.908 28.007-23.908-28.007h47.816zm56.65-46.078v36.863h-31.468l31.469-36.863zm9.216-10.795 7.559-8.855 48.241 56.513h-55.8v-47.658zm100.17-94.867h-100.17V110.962h112.45v118.92l-12.28 14.385zM340.725 101.744H230.193V13.169h112.45v85.954l-1.918 2.62zm-119.75 0H108.527V13.169h112.448v88.575zM108.527 244.267V110.962h112.448v62.002l-60.946 71.303h-51.502zm0 20.149 17.151 20.091-17.151 20.092v-40.183zm25.808 30.232 47.586 55.744-33.56 36.4h-39.834v-61.91l25.808-30.234zm5.53 101.36L108.528 430v-33.993h31.339zm17.911 0 63.2.133v102.692h-112.45v-49.407l49.25-53.419zm109.316 42.422 36.215-42.423h39.336v102.826h-112.45V406.94l26.883 31.49c2.643 2.907 7.02 3.24 10.016 0zm84.766-42.423h63.667l48.784 57.149v45.677h-112.45V396.007zm80.982 0h31.469v36.865l-31.47-36.865zm40.684 0h25.31v77.308l-25.31-29.647v-47.66zm25.31-151.74h-25.31v-4.897l25.31-29.647v34.544zm-25.31-25.18V110.962h25.31v78.478l-25.31 29.647zm25.31-117.343h-25.31V13.169h25.31v88.575zm-34.525-88.575v88.575H357.042l64.812-88.575h42.455zm-112.45 73.36v-73.36h53.677l-53.678 73.36zm-252.55-73.36v88.575h-86.14V13.169h86.14zm-86.14 97.793h86.14v122.374L13.169 132.43v-21.468zm78.158 133.305H13.169v-91.556l78.158 91.556zM84.592 352.92l14.717-17.24v51.113h-86.14V280.986l61.408 71.933c2.874 3.379 7.68 2.769 10.015 0zM13.169 498.833V396.007h86.14v43.99l-54.244 58.836H13.17zm86.14-39.408v39.408H62.976l36.333-39.408zm399.524 39.408h-25.309v-34.882l25.31 29.648v5.234zm-237.147-289.07-31.493-36.89v-61.911H333.98l-72.294 98.802z"/></svg>
